X: 2037
T: Zamanı Var ki...
C: Klarnet İbrahim Efendi
O: Turkey
F: http://compmusic.upf.edu/node/140
N: huzzam--sarki--aksak--zamani_var_ki--klarnet_ibrahim_efendi
N: makam= huzzam
N: form= sarki
N: usul= aksak = 9/8
M: 9/8
L: 1/16
K: C _1/4B _3/4e ^3/4f 
Q: 1/4=120
%%MIDI tuningsystem comma53
G3A B2c2 A2B2 c2d2 e2 | c3de2 f2de def2 g2a2  | \
w:  ARANAĞME  |   | 
g3c' bc'a_b gafg efde cd | 
w:   | 
Bc def2 eddc cBB6  | G3A B2c2 A2B2 c2d2 e2 | 
w:   |  ARANAĞME  | 
c3de2 f2de def2 g2a2  | g3c' bc'a_b gafg efde cd | 
w:   |   | 
Bc def2 eddc cBB6  | c2c4d2 d2{f}ed d6 | \
w:   |  Za ma *  nı  *  *  *  var   | 
f3ee3dd3edc B^AB2  | 
w:  ki  *  her  *  bez *  mim   | 
f2g6 g2{a}gf g6 | f2 g2f2 e2d2 c2gf e2ed  | \
w:  a nar  |  a nar  | 
d6d_1/4e dcB^A B4 z2 | 
w:  sın  SAZ  | 
c2 c4 d2d2 {f}edd6  | f3e e3d d3e dcB^A B2 | \
w:  Za ma *  nı  *  *  *  var   |  ki  *  her  *  bez *  mim   | 
f2 g6g2 {a}gfg6  | 
w:  a nar  | 
f2g2 f2e2 d2c2 gfe2 ed | d6 dedc Bcde fag2  | 
w:  a nar  |  sın  SAZ  | 
f2g2 f2e2 fgaf g6 | c'2 _baag2ffe edd4z2  | 
w:  Be ni  *  *  bir  *  *  *  gün   |  o *  *  lur  *  *  el *  *  *  bet  | 
f2g2 f2e2 d2c2 e4 d2 | d2 f4 edd3cBc d2cB  | \
w:  a rar  |  a rar  | 
B6fe dcBc defa g2 | 
w:  sın  SAZ  | 
f2 g2f2 e2fg afg6  | c'2_ba ag2f feed d4 z2 | 
w:  Be ni  *  *  bir  *  *  *  gün   |  o *  *  lur  *  *  el *  *  *  bet  | 
f2 g2f2 e2d2 c2e4d2  | d2f4ed d3c Bcd2 cB | \
w:  a rar  |  a rar  | 
B6 bc'b^a gab4z2  | 
w:  sın   SAZ  | 
b2c'2 b2^a2 b2{d'}c'b b6 | f4g2 fed3cB4z2  | \
w:  Ge lin  *  *  ce *  *  *  ha  |  tı ra  *  *  dur *  maz   | 
f2g6 g{a}g{a}gf g4 z2 | 
w:  ya nar  | 
f2 g2f2 e2d2 c2gf e2ed  | d6fe dcBc defa g2 | 
w:  ya nar  |  sın  SAZ  | 
f2 g2f2 e2fg afg6  | c'2_ba ag2f feed d4 z2 | 
w:  Be ni  *  *  bir  *  *  *  gün   |  o *  *  lur  *  *  el *  *  *  bet  | 
f2 g2f2 e2d2 c2e4d2  | d2f4ed d3c Bcd2 cB | \
w:  a rar  |  a rar  | 
B6 fedc Bcde fag2  | 
w:  sın  SAZ  | 
f2g2 f2e2 fgaf g6 | c'2 _baag2ffe edd4z2  | 
w:  Be ni  *  *  bir  *  *  *  gün   |  o *  *  lur  *  *  el *  *  *  bet  | 
f2g2 f2e2 d2c2 e4 d2 | d2 f4 edd3cBc d2cB  | \
w:  a rar  |  a rar  | 
B6fe dcB^A B6 | 
w:  sın  SAZ KARAR  | 
|


